assets/offer-text.svg

<svg width="101" height="101" viewBox="0 0 101 101" fill="none" xmlns="http://www.w3.org/2000/svg">
<g clip-path="url(#clip0_302_7279)">
<path d="M67.544 5.23572C67.589 5.64165 67.941 5.95798 68.3686 5.95798H74.1956L74.286 5.95318C74.7017 5.90913 75.0251 5.56494 75.0251 5.14744V3.26716L75.0203 3.17887C74.9752 2.77276 74.6232 2.45671 74.1956 2.45671L71.5232 2.4569L71.5224 1.39892L71.5175 1.31054C71.4725 0.904426 71.1205 0.588379 70.6926 0.588379H68.3688L68.2784 0.593179C67.8627 0.637132 67.5392 0.981038 67.5392 1.39892L67.5391 5.14744L67.544 5.23572Z" fill="#007AFF"/>
<path d="M98.1211 23.7281C98.0769 23.3222 97.7241 23.0059 97.297 23.0059H91.4695L91.3792 23.0107C90.9643 23.0547 90.6406 23.3989 90.6406 23.8164V25.6967L90.6453 25.785C90.6905 26.1911 91.0424 26.5071 91.4695 26.5071L94.1424 26.5069L94.1433 27.5649L94.148 27.6533C94.1932 28.0594 94.545 28.3755 94.9731 28.3755H97.297L97.3873 28.3708C97.8031 28.3267 98.1258 27.9828 98.1258 27.5649L98.1268 23.8164L98.1211 23.7281Z" fill="#007AFF"/>
<path d="M85.8999 23.0259C86.3137 23.0259 86.6186 23.2951 86.66 23.6821L86.6648 23.7735V26.0162C86.6648 26.4205 86.3895 26.7185 85.9934 26.759L85.8999 26.7638H79.7806C79.3667 26.7638 79.0619 26.4947 79.0204 26.1075L79.0156 26.0162V23.7735C79.0156 23.3691 79.291 23.0711 79.6871 23.0306L79.7806 23.0259H85.8999Z" fill="#007AFF"/>
<path d="M50.3195 2.74652C50.278 2.35951 49.973 2.09033 49.5594 2.09033H46.8822L46.7887 2.09504C46.3927 2.13551 46.1172 2.43367 46.1172 2.83791V5.08064L46.122 5.17203C46.1635 5.55913 46.4685 5.82821 46.8822 5.82821H49.5594L49.6528 5.82351C50.0488 5.78294 50.3243 5.48506 50.3243 5.08064V2.83791L50.3195 2.74652Z" fill="#007AFF"/>
<path d="M8.62574 5.83154C11.7979 5.83154 13.8915 7.81319 13.9774 10.8682L13.9802 11.0646V15.55C13.9802 18.6503 11.9526 20.6965 8.8267 20.7803L8.62574 20.7831H1.74147C1.32826 20.7831 1.02291 20.5136 0.981379 20.1268L0.976562 20.0355V17.7928C0.976562 17.3886 1.2524 17.0905 1.6481 17.0499L1.74147 17.0452H8.62574C9.62321 17.0452 10.1122 16.6093 10.1528 15.6798L10.1556 15.55V11.0646C10.1556 10.0899 9.70995 9.61187 8.75859 9.57215L8.62574 9.56942H1.74147C1.32826 9.56942 1.02291 9.29987 0.981379 8.91314L0.976562 8.82185V6.57912C0.976562 6.17517 1.2524 5.87681 1.6481 5.83625L1.74147 5.83154H8.62574Z" fill="#007AFF"/>
<path fill-rule="evenodd" clip-rule="evenodd" d="M23.9319 12.6045V17.1105H22.4018C21.1342 17.1105 20.1065 16.1017 20.1065 14.8575V2.09041C20.1065 1.67564 19.7641 1.33936 19.3416 1.33936H17.0463C16.6238 1.33936 16.2812 1.67564 16.2812 2.09041V14.8575C16.2812 18.1756 19.0215 20.8655 22.4018 20.8655H38.8507C40.2383 20.8655 41.5109 20.382 42.5031 19.5772L43.1835 20.542C43.3265 20.7445 43.5615 20.8655 43.8126 20.8655H48.3846C50.1257 20.8655 51.697 20.1519 52.8115 19.0064L53.8944 20.542C54.0374 20.7445 54.2724 20.8655 54.5235 20.8655H59.0955C60.6077 20.8655 61.9917 20.3272 63.0597 19.4352L63.8403 20.542C63.9832 20.7445 64.2183 20.8655 64.4693 20.8655H67.5002C69.0189 20.8655 70.4085 20.3225 71.4783 19.4235L72.267 20.542C72.41 20.7445 72.6451 20.8655 72.8961 20.8655H73.6318C75.2264 20.8655 76.6786 20.2669 77.7679 19.2862L78.4175 20.4706C78.5509 20.7138 78.8096 20.8655 79.0911 20.8655H84.3721C85.8811 20.8655 87.2443 20.2529 88.2178 19.2672L89.1173 20.542C89.2594 20.7445 89.4946 20.8655 89.7458 20.8655H94.3182C97.6986 20.8655 100.438 18.1756 100.438 14.8575V10.3514C100.438 9.93663 100.096 9.60044 99.6733 9.60044H97.3787C96.9553 9.60044 96.6128 9.93663 96.6128 10.3514V14.8575C96.6128 16.1017 95.5855 17.1105 94.3182 17.1105H89.5059C89.6498 16.6345 89.7279 16.1304 89.7279 15.6084V10.3514C89.7279 9.93663 89.3854 9.60044 88.9621 9.60044H86.6673C86.2448 9.60044 85.9022 9.93663 85.9022 10.3514V15.6084C85.9022 16.438 85.2172 17.1105 84.3721 17.1105H79.7817V10.3514C79.7817 9.93663 79.4391 9.60044 79.0166 9.60044H76.6921C76.2696 9.60044 75.927 9.93663 75.927 10.3514V14.8575C75.927 16.1017 74.8994 17.1105 73.6318 17.1105H73.1759C73.4627 16.4147 73.6207 15.6542 73.6207 14.8575V10.3514C73.6207 9.93663 73.2782 9.60044 72.8556 9.60044H70.5605C70.138 9.60044 69.7954 9.93663 69.7954 10.3514V14.8575C69.7954 16.1017 68.7678 17.1105 67.5002 17.1105H64.7711C65.0581 16.4147 65.216 15.6542 65.216 14.8575V10.3514C65.216 9.93663 64.8735 9.60044 64.451 9.60044H62.1558C61.7332 9.60044 61.3908 9.93663 61.3908 10.3514V14.8575C61.3908 16.1017 60.3631 17.1105 59.0955 17.1105H54.0602C54.3472 16.4147 54.5051 15.6542 54.5051 14.8575V10.3514C54.5051 9.93663 54.1626 9.60044 53.7401 9.60044H51.4449C51.0223 9.60044 50.6798 9.93663 50.6798 10.3514V14.8575C50.6798 16.1017 49.6522 17.1105 48.3846 17.1105H44.2622C44.4736 16.5232 44.5887 15.8913 44.5887 15.2329C44.5887 12.1222 42.0197 9.60044 38.8507 9.60044H35.3542C34.2959 7.80467 32.3179 6.59639 30.0525 6.59639C26.6722 6.59639 23.9319 9.28627 23.9319 12.6045ZM30.0525 10.3514C28.7849 10.3514 27.7572 11.3602 27.7572 12.6045V17.1105H32.3476V12.6045C32.3476 11.3602 31.32 10.3514 30.0525 10.3514ZM36.173 17.1105V13.3554H38.8507C39.907 13.3554 40.7634 14.196 40.7634 15.2329C40.7634 16.2699 39.907 17.1105 38.8507 17.1105H36.173Z" fill="#007AFF"/>
<path d="M8.64673 83.7501C8.20182 83.7501 7.88203 84.0638 7.88203 84.5001V94.9998C7.88203 96.0229 7.39506 96.5 6.35254 96.5H1.76475C1.31969 96.5 1 96.8144 1 97.2502V99.5005C1 99.9372 1.31969 100.251 1.76475 100.251H6.35254C9.79388 100.251 11.7057 98.3749 11.7057 94.9998V93.413L12.5984 94.677C12.7412 94.8793 12.9762 94.9998 13.2272 94.9998H32.6374C34.1717 94.9998 35.5742 94.4464 36.6482 93.5316L37.8207 94.9998H60.8772C63.1535 94.9998 65.1271 94.1386 66.499 92.708L67.8895 94.677C68.0324 94.8793 68.2674 94.9998 68.5184 94.9998H88.1908C91.5703 94.9998 94.31 92.3137 94.31 89.0002V84.5001C94.31 84.0859 93.9675 83.7501 93.5451 83.7501H91.2504C90.828 83.7501 90.4855 84.0859 90.4855 84.5001V89.0002C90.4855 90.2428 89.4581 91.2502 88.1908 91.2502H67.5769C68.0736 90.3611 68.3914 89.3482 68.491 88.2502H68.5248V87.5001C68.5248 83.1993 65.2625 80.0001 60.8772 80.0001H58.9654L62.8269 75.1216C63.2035 74.675 62.8797 74 62.2887 74H59.3507C58.8829 74 58.4392 74.2048 58.1409 74.5585L51.7002 82.6251C51.2617 83.1453 51.3944 83.7501 52.0826 83.7501H60.8772C63.0659 83.7501 64.701 85.3537 64.701 87.5001C64.701 89.6466 63.0659 91.2502 60.8772 91.2502H38.3117C38.5985 90.5554 38.7565 89.7959 38.7565 89.0002V84.5001C38.7565 84.0859 38.414 83.7501 37.9916 83.7501H35.6969C35.2745 83.7501 34.932 84.0859 34.932 84.5001V89.0002C34.932 90.2428 33.9047 91.2502 32.6374 91.2502H11.7057V84.5001C11.7057 84.0638 11.386 83.7501 10.941 83.7501H8.64673Z" fill="#007AFF"/>
<path d="M27.6583 97.8128C27.6168 97.4269 27.312 97.1577 26.8983 97.1577H20.7803L20.6869 97.1624C20.2908 97.2029 20.0156 97.5003 20.0156 97.9041V100.144L20.0204 100.235C20.0618 100.622 20.3666 100.89 20.7803 100.89H26.8983L26.9918 100.886C27.3878 100.845 27.6631 100.548 27.6631 100.144V97.9041L27.6583 97.8128Z" fill="#007AFF"/>
<path d="M10.9426 76.25C11.3561 76.25 11.661 76.5188 11.7025 76.9053L11.7073 76.9965V79.2363C11.7073 79.6402 11.4319 79.9377 11.036 79.9782L10.9426 79.9829H8.64751C8.23402 79.9829 7.9291 79.7142 7.88761 79.3276L7.88281 79.2363V76.9965C7.88281 76.5928 8.15819 76.2952 8.55409 76.2547L8.64751 76.25H10.9426Z" fill="#007AFF"/>
<path d="M88.6016 76.25C89.0156 76.25 89.3204 76.5188 89.3618 76.9053L89.3665 76.9965V79.2363C89.3665 79.6402 89.0908 79.9377 88.6947 79.9782L88.6016 79.9829H85.9249C85.5114 79.9829 85.2064 79.7142 85.165 79.3276L85.1602 79.2363V76.9965C85.1602 76.5928 85.4355 76.2952 85.8314 76.2547L85.9249 76.25H88.6016Z" fill="#007AFF"/>
<path d="M55.9001 74C55.664 74 55.4413 74.1068 55.2963 74.2896L50.4117 80.4474C50.3141 80.5706 50.4035 80.7501 50.5627 80.7501H51.3274C51.5635 80.7501 51.7863 80.6432 51.9311 80.4605L56.8157 74.3026C56.9135 74.1795 56.8239 74 56.6648 74H55.9001Z" fill="#007AFF"/>
<path d="M96.6328 76.25C96.6328 75.8358 96.9753 75.5 97.3977 75.5H99.6924C100.115 75.5 100.457 75.8358 100.457 76.25V94.2506C100.457 94.6647 100.115 94.9998 99.6924 94.9998H97.3977C96.9753 94.9998 96.6328 94.6647 96.6328 94.2506V76.25Z" fill="#007AFF"/>
<path d="M87.2784 42.7544C87.3242 43.1697 87.6818 43.4934 88.1162 43.4934H94.0371L94.1284 43.4885C94.5508 43.4434 94.8792 43.0913 94.8792 42.6642V40.7405L94.8745 40.6502C94.8293 40.2347 94.4708 39.9113 94.0371 39.9113L91.3219 39.9115L91.321 38.8292L91.3153 38.7388C91.2702 38.3234 90.9126 38 90.478 38H88.1163L88.0246 38.0049C87.6023 38.0499 87.2736 38.4018 87.2736 38.8292L87.2734 42.6642L87.2784 42.7544Z" fill="#007AFF"/>
<path d="M21.5639 44.8179C21.5218 44.422 21.2121 44.1465 20.7916 44.1465H14.574L14.4791 44.1514C14.0766 44.1928 13.7969 44.4977 13.7969 44.9113V47.2057L13.8018 47.2992C13.8438 47.6953 14.1536 47.9705 14.574 47.9705H20.7916L20.8866 47.9657C21.289 47.9243 21.5688 47.6194 21.5688 47.2057V44.9113L21.5639 44.8179Z" fill="#007AFF"/>
<path d="M47.306 38C47.7263 38 48.0362 38.2755 48.0783 38.6714L48.0832 38.7648V41.0592C48.0832 41.4729 47.8033 41.7778 47.4009 41.8192L47.306 41.824H44.5858C44.1655 41.824 43.8556 41.5487 43.8136 41.1527L43.8086 41.0592V38.7648C43.8086 38.3512 44.0885 38.0463 44.4909 38.0049L44.5858 38H47.306Z" fill="#007AFF"/>
<path d="M59.076 38C58.8361 38 58.6097 38.1095 58.4624 38.2967L53.4984 44.6048C53.399 44.7309 53.49 44.9148 53.6517 44.9148H54.4288C54.6688 44.9148 54.8952 44.8054 55.0424 44.6182L60.0065 38.31C60.1059 38.1839 60.0149 38 59.8532 38H59.076Z" fill="#007AFF"/>
<path fill-rule="evenodd" clip-rule="evenodd" d="M51.9061 55.6711H64.1337C66.358 55.6711 68.0197 54.0283 68.0197 51.8296C68.0197 49.6308 66.358 47.988 64.1337 47.988H55.196C54.4965 47.988 54.3617 47.3684 54.8073 46.8356L61.3528 38.5721C61.656 38.2099 62.1069 38 62.5823 38H65.5681C66.1688 38 66.4979 38.6915 66.1151 39.149L62.1907 44.1464H64.1337C68.3271 44.1464 71.5102 47.0482 71.8714 51.0613H71.9057V52.5978H71.8714C71.7702 53.7227 71.4472 54.7603 70.9425 55.6711H79.4701C80.7581 55.6711 81.8021 54.6392 81.8021 53.3662V48.7563C81.8021 48.332 82.1502 47.988 82.5795 47.988H84.9115C85.3408 47.988 85.6889 48.332 85.6889 48.7563V53.3662C85.6889 54.1813 85.5284 54.9593 85.2369 55.6711H88.0097C89.2973 55.6711 90.3416 54.6392 90.3416 53.3662V48.7563C90.3416 48.332 90.6897 47.988 91.1187 47.988H93.451C93.88 47.988 94.2281 48.332 94.2281 48.7563V53.3662C94.2281 54.1813 94.0682 54.9593 93.7766 55.6711H94.2394C95.5274 55.6711 96.5717 54.6392 96.5717 53.3662V48.7563C96.5717 48.332 96.9198 47.988 97.3489 47.988H99.6812C100.11 47.988 100.458 48.332 100.458 48.7563V53.3662C100.458 56.7608 97.6744 59.5127 94.2394 59.5127H93.4924C93.2375 59.5127 92.9985 59.3889 92.8527 59.1816L92.052 58.0375C90.9644 58.9572 89.5532 59.5127 88.0097 59.5127H84.9302C84.6751 59.5127 84.4362 59.3889 84.2911 59.1816L83.4979 58.0493C82.4128 58.962 81.0066 59.5127 79.4701 59.5127H70.3446C70.0894 59.5127 69.8506 59.3889 69.7054 59.1816L68.8855 58.0112C67.5926 58.9629 65.9588 59.5127 64.1337 59.5127H33.5719C33.3168 59.5127 33.078 59.3889 32.9328 59.1816L32.1396 58.0493C31.0545 58.9619 29.6482 59.5127 28.1117 59.5127H7.21875C3.78424 59.5127 1 56.7608 1 53.3662V48.7563C1 48.332 1.34803 47.988 1.77735 47.988H4.10942C4.53872 47.988 4.88673 48.332 4.88673 48.7563V53.3662C4.88673 54.6392 5.93086 55.6711 7.21875 55.6711H28.1117C29.3997 55.6711 30.4438 54.6392 30.4438 53.3662V48.7563C30.4438 48.332 30.7919 47.988 31.2212 47.988H33.5532C33.9825 47.988 34.3306 48.332 34.3306 48.7563V53.3662C34.3306 54.1813 34.17 54.9593 33.8785 55.6711H40.3726C40.0812 54.9593 39.9206 54.1813 39.9206 53.3662V51.0613C39.9206 47.6666 42.7049 44.9148 46.1394 44.9148C49.5739 44.9148 52.3582 47.6666 52.3582 51.0613V53.3662C52.3582 54.1813 52.1977 54.9593 51.9061 55.6711ZM48.4714 51.0613V53.3662C48.4714 54.6392 47.4273 55.6711 46.1394 55.6711C44.8514 55.6711 43.8073 54.6392 43.8073 53.3662V51.0613C43.8073 49.7882 44.8514 48.7563 46.1394 48.7563C47.4273 48.7563 48.4714 49.7882 48.4714 51.0613Z" fill="#007AFF"/>
</g>
<defs>
<clipPath id="clip0_302_7279">
<rect width="101" height="101" fill="white"/>
</clipPath>
</defs>
</svg>

<svg xmlns="http://www.w3.org/2000/svg" width="101" height="101" fill="none"><g fill="#007AFF" clip-path="url(#a)"><path d="M67.544 5.236a.823.823 0 0 0 .825.722h5.827l.09-.005a.818.818 0 0 0 .74-.806v-1.88l-.006-.088a.823.823 0 0 0-.824-.722h-2.673V1.399l-.005-.088a.823.823 0 0 0-.825-.723h-2.324l-.09.005a.818.818 0 0 0-.74.806v3.748zM98.121 23.728a.822.822 0 0 0-.824-.722h-5.828l-.09.005a.818.818 0 0 0-.738.805v1.88l.004.089a.823.823 0 0 0 .825.722h2.672l.001 1.058.005.088a.823.823 0 0 0 .825.723h2.324l.09-.005a.817.817 0 0 0 .739-.806v-3.749zM85.9 23.026c.414 0 .719.27.76.656l.005.091v2.243a.722.722 0 0 1-.672.743l-.093.005h-6.12c-.413 0-.718-.27-.76-.656l-.004-.092v-2.242c0-.405.275-.703.671-.743l.094-.005zM50.32 2.747c-.042-.387-.347-.657-.76-.657h-2.678l-.093.005a.722.722 0 0 0-.672.743V5.08l.005.091c.041.387.346.656.76.656h2.677l.094-.004a.722.722 0 0 0 .671-.743V2.838zM8.626 5.832c3.172 0 5.266 1.981 5.351 5.036l.003.197v4.485c0 3.1-2.027 5.147-5.153 5.23l-.201.003H1.74c-.413 0-.718-.27-.76-.656l-.004-.091v-2.243c0-.404.275-.703.671-.743l.093-.005h6.885c.997 0 1.486-.436 1.527-1.365l.003-.13v-4.485c0-.975-.446-1.453-1.397-1.493l-.133-.003H1.74c-.413 0-.718-.27-.76-.656l-.004-.091V6.579c0-.404.275-.702.671-.743l.093-.004z"/><path fill-rule="evenodd" d="M23.932 12.605v4.505h-1.53c-1.268 0-2.296-1.008-2.296-2.252V2.09a.758.758 0 0 0-.764-.75h-2.296a.758.758 0 0 0-.765.75v12.768c0 3.318 2.74 6.008 6.12 6.008h16.45a5.78 5.78 0 0 0 3.652-1.289l.68.965a.77.77 0 0 0 .63.323h4.572a6.158 6.158 0 0 0 4.427-1.859l1.082 1.536a.77.77 0 0 0 .63.323h4.572a6.164 6.164 0 0 0 3.964-1.43l.78 1.107a.77.77 0 0 0 .63.323h3.03a6.164 6.164 0 0 0 3.978-1.441l.789 1.118a.77.77 0 0 0 .63.323h.735a6.162 6.162 0 0 0 4.136-1.579l.65 1.185a.767.767 0 0 0 .673.395h5.281a5.389 5.389 0 0 0 3.846-1.599l.9 1.275a.767.767 0 0 0 .628.323h4.572c3.38 0 6.12-2.69 6.12-6.007V10.35a.758.758 0 0 0-.765-.75H97.38a.758.758 0 0 0-.766.75v4.506c0 1.245-1.028 2.253-2.295 2.253h-4.812c.144-.476.222-.98.222-1.502v-5.257a.758.758 0 0 0-.766-.75h-2.295a.758.758 0 0 0-.765.75v5.257c0 .83-.685 1.502-1.53 1.502h-4.59v-6.759a.758.758 0 0 0-.765-.75h-2.325a.758.758 0 0 0-.765.75v4.506c0 1.245-1.028 2.253-2.295 2.253h-.456a5.897 5.897 0 0 0 .445-2.252V10.35a.758.758 0 0 0-.765-.75H70.56a.758.758 0 0 0-.766.75v4.506c0 1.245-1.027 2.253-2.295 2.253h-2.729a5.894 5.894 0 0 0 .445-2.252V10.35a.758.758 0 0 0-.765-.75h-2.295a.758.758 0 0 0-.765.75v4.506c0 1.245-1.028 2.253-2.295 2.253H54.06a5.894 5.894 0 0 0 .445-2.252V10.35a.758.758 0 0 0-.765-.75h-2.295a.758.758 0 0 0-.765.75v4.506c0 1.245-1.028 2.253-2.295 2.253h-4.123c.212-.587.327-1.219.327-1.877 0-3.11-2.57-5.633-5.738-5.633h-3.497a6.14 6.14 0 0 0-5.302-3.004c-3.38 0-6.12 2.69-6.12 6.009m6.12-2.254c-1.267 0-2.295 1.01-2.295 2.253v4.506h4.59v-4.505c0-1.245-1.027-2.254-2.295-2.254m6.121 6.76v-3.756h2.678c1.056 0 1.912.841 1.912 1.878s-.856 1.877-1.912 1.877z" clip-rule="evenodd"/><path d="M8.647 83.75c-.445 0-.765.314-.765.75V95c0 1.023-.487 1.5-1.53 1.5H1.766c-.445 0-.765.314-.765.75v2.25c0 .437.32.751.765.751h4.588c3.44 0 5.353-1.876 5.353-5.251v-1.587l.892 1.264a.769.769 0 0 0 .63.323h19.41a6.166 6.166 0 0 0 4.01-1.468L37.821 95h23.056c2.276 0 4.25-.861 5.622-2.292l1.39 1.969a.77.77 0 0 0 .63.323H88.19c3.38 0 6.119-2.686 6.119-6v-4.5a.758.758 0 0 0-.765-.75H91.25a.758.758 0 0 0-.764.75V89c0 1.243-1.028 2.25-2.295 2.25H67.577c.497-.889.814-1.902.914-3h.034v-.75c0-4.3-3.263-7.5-7.648-7.5h-1.912l3.862-4.878c.377-.447.053-1.122-.538-1.122H59.35c-.468 0-.912.205-1.21.558l-6.44 8.067c-.44.52-.307 1.125.382 1.125h8.794c2.189 0 3.824 1.604 3.824 3.75 0 2.147-1.635 3.75-3.824 3.75H38.312a5.882 5.882 0 0 0 .445-2.25v-4.5a.758.758 0 0 0-.765-.75h-2.295a.758.758 0 0 0-.765.75V89c0 1.243-1.027 2.25-2.295 2.25H11.706V84.5c0-.436-.32-.75-.765-.75z"/><path d="M27.658 97.813c-.041-.386-.346-.655-.76-.655H20.78l-.093.004a.721.721 0 0 0-.671.742v2.24l.004.091c.042.387.347.655.76.655h6.118l.094-.004a.722.722 0 0 0 .671-.742v-2.24zM10.943 76.25c.413 0 .718.269.76.655l.004.091v2.24a.722.722 0 0 1-.671.742l-.093.005H8.648c-.414 0-.719-.269-.76-.655l-.005-.092v-2.24c0-.403.275-.7.671-.741l.094-.005zM88.602 76.25c.414 0 .718.269.76.655l.005.091v2.24a.722.722 0 0 1-.672.742l-.093.005h-2.677c-.414 0-.719-.269-.76-.655l-.005-.092v-2.24c0-.403.276-.7.671-.741l.094-.005zM55.9 74a.77.77 0 0 0-.604.29l-4.884 6.157a.187.187 0 0 0 .15.303h.765a.77.77 0 0 0 .604-.29l4.885-6.157a.187.187 0 0 0-.151-.303zM96.633 76.25c0-.414.342-.75.765-.75h2.294c.423 0 .765.336.765.75v18c0 .415-.342.75-.765.75h-2.294a.757.757 0 0 1-.765-.75zM87.278 42.754a.838.838 0 0 0 .838.74h5.921l.091-.005a.834.834 0 0 0 .751-.825V40.74l-.005-.09a.838.838 0 0 0-.837-.739h-2.715l-.001-1.082-.006-.09a.837.837 0 0 0-.837-.739h-2.362l-.091.005a.834.834 0 0 0-.751.824v3.835zM21.564 44.818c-.042-.396-.352-.671-.772-.671h-6.218l-.095.004a.737.737 0 0 0-.682.76v2.295l.005.093c.042.396.352.672.772.672h6.218l.095-.005a.737.737 0 0 0 .682-.76V44.91zM47.306 38c.42 0 .73.276.772.671l.005.094v2.294c0 .414-.28.719-.682.76l-.095.005h-2.72c-.42 0-.73-.275-.772-.671l-.005-.094v-2.294c0-.414.28-.719.682-.76l.095-.005zM59.076 38a.78.78 0 0 0-.614.297l-4.964 6.308c-.099.126-.008.31.154.31h.777a.78.78 0 0 0 .613-.297l4.965-6.308a.192.192 0 0 0-.154-.31z"/><path fill-rule="evenodd" d="M51.906 55.671h12.228c2.224 0 3.886-1.643 3.886-3.841 0-2.2-1.662-3.842-3.886-3.842h-8.938c-.7 0-.834-.62-.389-1.152l6.546-8.264a1.604 1.604 0 0 1 1.23-.572h2.985c.6 0 .93.691.547 1.149l-3.924 4.997h1.943c4.193 0 7.376 2.902 7.737 6.915h.035v1.537h-.035a7.747 7.747 0 0 1-.928 3.073h8.527c1.288 0 2.332-1.032 2.332-2.305v-4.61c0-.424.348-.768.777-.768h2.333c.429 0 .777.344.777.768v4.61c0 .815-.16 1.593-.452 2.305h2.773c1.287 0 2.332-1.032 2.332-2.305v-4.61c0-.424.348-.768.777-.768h2.332c.429 0 .777.344.777.768v4.61c0 .815-.16 1.593-.451 2.305h.462c1.288 0 2.333-1.032 2.333-2.305v-4.61c0-.424.348-.768.777-.768h2.332c.429 0 .777.344.777.768v4.61c0 3.395-2.784 6.147-6.219 6.147h-.747a.782.782 0 0 1-.64-.331l-.8-1.145a6.239 6.239 0 0 1-4.042 1.476h-3.08a.78.78 0 0 1-.639-.331l-.793-1.133a6.237 6.237 0 0 1-4.028 1.464h-9.125a.78.78 0 0 1-.64-.331l-.82-1.17c-1.292.95-2.926 1.5-4.751 1.5H33.572a.78.78 0 0 1-.64-.33l-.792-1.133a6.237 6.237 0 0 1-4.028 1.464H7.219C3.784 59.513 1 56.76 1 53.366v-4.61c0-.424.348-.768.777-.768H4.11c.43 0 .778.344.778.768v4.61c0 1.273 1.044 2.305 2.332 2.305h20.893c1.288 0 2.332-1.032 2.332-2.305v-4.61c0-.424.348-.768.777-.768h2.332c.43 0 .778.344.778.768v4.61c0 .815-.161 1.593-.453 2.305h6.495a6.07 6.07 0 0 1-.452-2.305v-2.305c0-3.394 2.784-6.146 6.218-6.146 3.435 0 6.22 2.752 6.22 6.146v2.305c0 .815-.161 1.593-.453 2.305m-3.435-4.61v2.305c0 1.273-1.044 2.305-2.332 2.305-1.288 0-2.332-1.032-2.332-2.305v-2.305c0-1.273 1.044-2.305 2.332-2.305 1.288 0 2.332 1.032 2.332 2.305" clip-rule="evenodd"/></g><defs><clipPath id="a"><path fill="#fff" d="M0 0h101v101H0z"/></clipPath></defs></svg>
